svg/Outline/download.svg

<svg viewBox="0 0 24 24" xmlns="http://www.w3.org/2000/svg" width="24" height="24"><path d="M15.32 8.39a4 4 0 0 1 1.5.37 4 4 0 0 1 1.74 1.75c.44.85.44 1.97.44 4.21v2.69c-.03 1.3-.1 2.09-.44 2.73l-.15.27a4 4 0 0 1-1.6 1.48l-.16.07a7 7 0 0 1-2.57.36H9.92a7 7 0 0 1-2.57-.36l-.17-.07A4 4 0 0 1 5.6 20.4l-.15-.27C5.1 19.5 5.03 18.7 5 17.4v-2.68c0-2.1 0-3.21.36-4.05l.08-.16A4 4 0 0 1 6.9 8.9l.27-.15a4 4 0 0 1 1.5-.37c.5-.05.92.36.92.87v.2c0 .37-.3.68-.68.71a2 2 0 0 0-.92.2 2.2 2.2 0 0 0-.96.95c-.07.13-.15.37-.2.92-.04.58-.04 1.33-.04 2.48v1.2c0 1.15 0 1.9.05 2.48.04.56.12.79.19.92q.33.63.96.96l.12.05c.15.06.38.11.8.14.58.05 1.33.05 2.48.05h1.2c1.15 0 1.9 0 2.48-.05.56-.04.79-.12.92-.19l.15-.08q.53-.33.81-.88l.05-.12c.05-.15.1-.38.14-.8.05-.57.05-1.33.05-2.48v-1.2c0-1.15 0-1.9-.05-2.48a3 3 0 0 0-.14-.8l-.05-.12a2.2 2.2 0 0 0-.96-.96 3 3 0 0 0-.92-.19.73.73 0 0 1-.68-.71v-.2c0-.5.42-.92.92-.87"/><path d="M12 3.4a.9.9 0 0 1 .9.82V14.8l1.35-1.34.07-.06a.9.9 0 0 1 1.27 1.26l-.06.07-2.89 2.89a.9.9 0 0 1-1.27 0l-2.89-2.9a.9.9 0 0 1 1.28-1.26l1.35 1.35V4.2a.9.9 0 0 1 .9-.8"/></svg>

<svg viewBox="0 0 24 24" xmlns="http://www.w3.org/2000/svg" width="24" height="24"><path d="M15.32 8.39a4 4 0 0 1 1.5.37 4 4 0 0 1 1.74 1.75c.44.85.44 1.97.44 4.21v2.69c-.03 1.3-.1 2.09-.44 2.73l-.15.27a4 4 0 0 1-1.6 1.48l-.16.07a7 7 0 0 1-2.57.36H9.92a7 7 0 0 1-2.57-.36l-.17-.07A4 4 0 0 1 5.6 20.4l-.15-.27C5.1 19.5 5.03 18.7 5 17.4v-2.68c0-2.1 0-3.21.36-4.05l.08-.16A4 4 0 0 1 6.9 8.9l.27-.15a4 4 0 0 1 1.5-.37c.5-.05.92.36.92.87v.2c0 .37-.3.68-.68.71a2 2 0 0 0-.92.2 2.2 2.2 0 0 0-.96.95c-.07.13-.15.37-.2.92-.04.58-.04 1.33-.04 2.48v1.2c0 1.15 0 1.9.05 2.48.04.56.12.79.19.92q.33.63.96.96l.12.05c.15.06.38.11.8.14.58.05 1.33.05 2.48.05h1.2c1.15 0 1.9 0 2.48-.05.56-.04.79-.12.92-.19l.15-.08q.53-.33.81-.88l.05-.12c.05-.15.1-.38.14-.8.05-.57.05-1.33.05-2.48v-1.2c0-1.15 0-1.9-.05-2.48a3 3 0 0 0-.14-.8l-.05-.12a2.2 2.2 0 0 0-.96-.96 3 3 0 0 0-.92-.19.73.73 0 0 1-.68-.71v-.2c0-.5.42-.92.92-.87"/><path d="M12 3.4A.9 .9 0 0 1 12.9 4.22L12.9 14.8L14.32 13.4A.9 .9 0 0 1 15.59 14.66L12.64 17.62A.9 .9 0 0 1 11.37 17.62L8.48 14.72A.9 .9 0 0 1 9.76 13.46L11.11 14.81L11.11 4.2A.9 .9 0 0 1 12.01 3.4"/></svg>
